X: 26403
T: Merry Maid's Wedding, The
R: strathspey
M: 4/4
K: Eminor
|:(3edc|B<EE>c B>A (3FGA|B<E (3EEE D>EF>A|
B<EE>c B>AF<A|B<Ad>F E2:|
|:d>c|B>A (3Bcd e>fd<B|A>BA>F A>Bd<A|
[1 B>AB<d e2 (3dcB|A>BA<F E2:|
2 B2 B>c d2 f<e|d>BA<F E2||

